static/assets/images/exchanges/htx.svg

<svg width="169" height="256" viewBox="0 0 169 256" fill="none" xmlns="http://www.w3.org/2000/svg">
<path d="M110.751 78.5332C111.511 40.8566 90.1769 8.02569 79.0648 0.135209C79.0142 0.0846529 78.0246 -0.44871 78.1004 1.02372C78.1004 1.049 78.0751 1.049 78.0751 1.07428C76.9338 72.2415 40.3517 91.4224 20.4884 117.504C-23.653 175.503 13.1818 241.673 60.9001 254.205C61.7128 254.409 63.9195 255.069 68.1043 255.931C70.287 256.388 70.9215 254.535 69.3227 251.77C63.615 241.85 53.4672 225.104 51.4639 203.589C46.8974 153.632 109.862 122.375 110.751 78.5332Z" fill="white"/>
<path d="M134.8 102.662C134.419 102.383 133.887 102.408 133.837 102.89C132.822 111.948 123.46 130.723 111.131 148.28C69.6273 207.472 90.5321 234.314 106.768 252.938C109.761 256.388 111.257 255.627 112.831 253.167C114.302 250.832 116.534 247.863 126.125 243.322C127.621 242.612 163.848 223.38 167.78 179.589C171.56 137.218 144.389 110.425 134.8 102.662Z" fill="#008CD6"/>
</svg>

<svg xmlns="http://www.w3.org/2000/svg" fill="none" viewBox="0 0 169 256"><path fill="#fff" d="M110.751 78.533c.76-37.676-20.574-70.507-31.686-78.398-.05-.05-1.04-.584-.965.889 0 .025-.025.025-.025.05-1.141 71.168-37.723 90.348-57.587 116.43-44.141 57.999-7.306 124.169 40.412 136.701.813.204 3.02.864 7.204 1.726 2.183.457 2.817-1.396 1.219-4.161-5.708-9.92-15.856-26.666-17.86-48.181-4.566-49.957 58.399-81.214 59.288-125.056"/><path fill="#008CD6" d="M134.8 102.662c-.381-.279-.913-.254-.963.228-1.015 9.058-10.377 27.833-22.706 45.39-41.504 59.192-20.599 86.034-4.363 104.658 2.993 3.45 4.489 2.689 6.063.229 1.471-2.335 3.703-5.304 13.294-9.845 1.496-.71 37.723-19.942 41.655-63.733 3.78-42.371-23.391-69.164-32.98-76.927"/></svg>
